assets/arrow-right.svg

<svg xmlns="http://www.w3.org/2000/svg" fill="none" viewBox="0 0 22 12">
  <path fill="#2A2238" d="M1 5.25c-.414214 0-.75.33579-.75.75s.335786.75.75.75v-1.5Zm20.5303 1.28033c.2929-.29289.2929-.76777 0-1.06066L16.7574.696699c-.2929-.292893-.7678-.292893-1.0607 0-.2929.292893-.2929.767771 0 1.060661L19.9393 6l-4.2426 4.2426c-.2929.2929-.2929.7678 0 1.0607.2929.2929.7678.2929 1.0607 0l4.7729-4.77297ZM1 6.75h20v-1.5H1v1.5Z"/>
</svg>

<svg width="22" height="12" viewBox="0 0 22 12" fill="none" xmlns="http://www.w3.org/2000/svg">
<path d="M1 5.25C0.585786 5.25 0.25 5.58579 0.25 6C0.25 6.41421 0.585786 6.75 1 6.75V5.25ZM21.5303 6.53033C21.8232 6.23744 21.8232 5.76256 21.5303 5.46967L16.7574 0.696699C16.4645 0.403806 15.9896 0.403806 15.6967 0.696699C15.4038 0.989592 15.4038 1.46447 15.6967 1.75736L19.9393 6L15.6967 10.2426C15.4038 10.5355 15.4038 11.0104 15.6967 11.3033C15.9896 11.5962 16.4645 11.5962 16.7574 11.3033L21.5303 6.53033ZM1 6.75H21V5.25H1V6.75Z" fill="#2A2238"/>
</svg>
